public/formular-icons/operators/DIntegral.svg

<svg style="vertical-align:-2.348ex" xmlns="http://www.w3.org/2000/svg" width="3.44ex" height="6.009ex" viewBox="0 -1618.4 1520.7 2656.2" xmlns:xlink="http://www.w3.org/1999/xlink"><defs><path id="a" d="M114-798q18-26 51-26h2q28 0 56 60t52 164 45 209 42 227q3 21 5 31 72 425 156 788t122 472l10 30q4 12 17 44t27 56 34 49 44 40 51 14q56 0 84-35t32-80q0-25-12-40t-23-19-22-3q-21 0-38 15t-17 41q0 48 53 57l-3 4q-3 3-8 7t-8 6q-15 10-33 10-14 0-26-12t-32-56-39-116-47-203-56-308Q574 293 510-5T410-437t-55-192q-77-233-190-233-40 0-73 31t-37 85q0 35 19 48t38 13q21 0 38-15t17-41q0-48-53-57Z"/></defs><g stroke="currentColor" fill="currentColor" stroke-width="0"><g><use data-c="222B" xlink:href="#a" transform="matrix(1 0 0 -1 0 -1)"/><g><text data-variant="normal" transform="matrix(.707 0 0 .707 1046.4 -1088.1)" font-size="884" font-family="serif">⬚</text></g><g><text data-variant="normal" transform="matrix(.707 0 0 .707 589 896.4)" font-size="884" font-family="serif">⬚</text></g></g></g></svg>

<svg style="vertical-align: -2.348ex" xmlns="http://www.w3.org/2000/svg" width="3.44ex" height="6.009ex" role="img" focusable="false" viewBox="0 -1618.4 1520.7 2656.2" xmlns:xlink="http://www.w3.org/1999/xlink"><defs><path id="MJX-14-TEX-LO-222B" d="M114 -798Q132 -824 165 -824H167Q195 -824 223 -764T275 -600T320 -391T362 -164Q365 -143 367 -133Q439 292 523 655T645 1127Q651 1145 655 1157T672 1201T699 1257T733 1306T777 1346T828 1360Q884 1360 912 1325T944 1245Q944 1220 932 1205T909 1186T887 1183Q866 1183 849 1198T832 1239Q832 1287 885 1296L882 1300Q879 1303 874 1307T866 1313Q851 1323 833 1323Q819 1323 807 1311T775 1255T736 1139T689 936T633 628Q574 293 510 -5T410 -437T355 -629Q278 -862 165 -862Q125 -862 92 -831T55 -746Q55 -711 74 -698T112 -685Q133 -685 150 -700T167 -741Q167 -789 114 -798Z"></path></defs><g stroke="currentColor" fill="currentColor" stroke-width="0" transform="scale(1,-1)"><g data-mml-node="math"><g data-mml-node="msubsup"><g data-mml-node="mo" transform="translate(0 1)"><use data-c="222B" xlink:href="#MJX-14-TEX-LO-222B"></use></g><g data-mml-node="TeXAtom" transform="translate(1046.4,1088.1) scale(0.707)" data-mjx-texclass="ORD"><g data-mml-node="mo"><text data-variant="normal" transform="scale(1,-1)" font-size="884px" font-family="serif">⬚</text></g></g><g data-mml-node="TeXAtom" transform="translate(589,-896.4) scale(0.707)" data-mjx-texclass="ORD"><g data-mml-node="mo"><text data-variant="normal" transform="scale(1,-1)" font-size="884px" font-family="serif">⬚</text></g></g></g></g></g></svg>
